X: 851
M: 9/8
L: 1/8
K: Bm
|:\
f2c d>cB c2c | dcB dcB ^A2G |\
|:\
f2e fga efg | f>gf efd cde |
fga fdc BAG | F3 Edc d2f |\
c2f c2f c2F | B>cd efd cde |\
fbg eaf dge | fbc c3 B2z :|

